X:0456
T:Les Drapeaux.
M:C
L:1/8
Q:1/2=104
I: :: ::
Z:Jack Campin * www.campin.me.uk * 2009
K:G
B2c2|d4     B2AB|G4   c2 B2|{B}A2GF  G2A2|B2G2
B2c2|d4  {c}B2AB|G4   c2 B2|   A2G2  A2F2|G4 ::
g2f2|e2^d2  e2f2|B4   e2^d2|   e2f2  g2ag|f2e2
g2f2|e2^d2  e2f2|B4   e2^d2|   e2f2  g2ag|f2e2
g2d2|B2 G2  g2d2|B2G2 B2 c2|   d4 {c}B2AB|G4
c2B2|A2 GF  G2A2|B2G2 B2 c2|   d4 {c}B2AB|G4
c2B2|A2 G2  A2F2|G4       :|
<end>
<start>
